X:7
T:Retreat Set #1
M:3/4
L:1/8
Q:1/4=56
K:D
T:Castle Dangerous
|:{/Gdc}d3/2e/2 {/gfg}f2{/ag}a2 |{/fg}f1d1 {/g}G2{/d}B2|{/g}d3/2B/2 {/G}A2{/Gdc}d2|{/g}f1a1{/ef}e2-e2|!
{/Gdc}d3/2e/2 {/gfg}f2{/ag}a2 |{/fg}f1d1{/g}G2{/d}B2|{/g}d3/2B/2 {/G}A2{/gfg}f2|{/gf}g1c1{/Gdc}d2{/gdG}d2:|!
|:{/g}f3/2g/2{/ag}a2{/fg}f1a1   |{/fg}f1d1{/g}G2{/d}B2|{/g}d3/2B/2{/G}A2{/Gdc}d2|{/g}f1a1{/ef}e2-e2|!
[1 {/g}f3/2g/2{/ag}a2{/fg}f1a1    |{/fg}f1d1{/g}G2{/d}B2|{/g}d3/2B/2{/G}A2{/gfg}f2|{/gf}g1c1{/Gdc}d2{/gdG}d2:|!
[2  {/Gdc}d3/2e/2 {/gfg}f2{/ag}a2 |{/fg}f1d1{/g}G2{/d}B2|{/g}d3/2B/2 {/G}A2{/gfg}f2|{/gf}g1c1{/Gdc}d2{/gdG}d2|]!
T:Dream Valley of Glendaruel
|:{/g}A3/2B/2{/Gdc}d2{/G}A2|{/g}f3/2g/2{/ag}a2{/Gdc}d2|{/g}e3/2f/2{/gf}g3B1|{/g}f1d1 {/g}f1g3/4f/4{/g}e2|!
  {/g}f3/2e/2 {/Gdc}d1f1{/AGAG}A2|{/ag}a3/2g/2 {/a}f1a1{/Gdc}d2|{/g}d3/2c/2{/gBd}B2{/g}G1{/gf}g1|{/a}e3/2c/2{/Gdc}d4:|!
|:{/g}f3/2g/2{/ag}a2{/Gdc}d2|{/gf}g1f1{/gfg}f2{/g}e2|{/g}f3/2g/2{/ag}a2{/Gdc}d3/2c/2|{/gBd}B1e1 {/gcd}c2{/G}A2|!
  {/g}f3/2e/2 {/Gdc}d1f1{/AGAG}A2|{/ag}a3/2g/2 {/a}f1a1{/Gdc}d2 |{/g}d3/2c/2{/gBd}B2{/g}G1{/gf}g1 |  {/a}e3/2c/2{/Gdc}d4 :|]!

